raw/symbols/bch.svg

<svg width="42" height="42" viewBox="0 0 42 42" fill="none" xmlns="http://www.w3.org/2000/svg">
<circle cx="21" cy="21" r="20" fill="#8DC351"/>
<path fill-rule="evenodd" clip-rule="evenodd" d="M26.2345 18.6452C26.2673 18.6103 26.2807 18.6031 26.294 18.5959C26.3037 18.582 26.3186 18.5697 26.3335 18.5574C26.3484 18.5451 26.3632 18.5327 26.373 18.5189C27.1893 17.7345 27.5735 16.7874 27.4437 15.6531C27.3901 15.2346 27.2761 14.8316 27.1281 14.4296C26.9946 14.0543 26.8005 13.6944 26.5469 13.3838C26.0603 12.7688 25.4322 12.4021 24.6872 12.2017C24.0787 12.0309 23.4539 11.9893 22.8178 12.0227C22.1745 12.0427 21.5261 12.1171 20.8993 12.2315C20.8016 12.2486 20.7545 12.2568 20.7263 12.2375C20.7001 12.2194 20.6903 12.1774 20.6715 12.0963L20.3692 10.8656C20.2875 10.5226 20.2042 10.1847 20.1209 9.84679C20.0377 9.50888 19.9544 9.17093 19.8727 8.82789C19.8408 8.67303 19.8408 8.67303 19.6725 8.71215C19.3361 8.79038 18.9996 8.86863 18.6559 8.93354L17.6865 9.14668C17.6259 9.16212 17.5993 9.1765 17.6219 9.25033C17.6291 9.26366 17.6311 9.27546 17.6332 9.28725C17.6352 9.29905 17.6373 9.31084 17.6445 9.32417C17.7216 9.6267 17.8002 9.92411 17.8788 10.2215C17.9575 10.5189 18.0361 10.8163 18.1132 11.1188L18.1746 11.3607C18.276 11.7605 18.3756 12.1534 18.4894 12.5505C18.5013 12.6043 18.5072 12.6312 18.4967 12.6477C18.4862 12.6641 18.4592 12.67 18.4054 12.6818L17.5591 12.9318C17.4416 12.9693 17.3257 13.0018 17.2098 13.0342C17.0938 13.0666 16.9779 13.099 16.8605 13.1365C16.8066 13.1484 16.7797 13.1543 16.7633 13.1438C16.7468 13.1333 16.7409 13.1064 16.7291 13.0525C16.7255 13.0459 16.7234 13.0341 16.7214 13.0223C16.7193 13.0105 16.7173 12.9987 16.7137 12.992C16.5893 12.4741 16.4664 11.9511 16.3435 11.4281C16.2207 10.905 16.0978 10.382 15.9734 9.86409C15.9694 9.84634 15.9657 9.82996 15.9624 9.81484C15.9396 9.71284 15.9298 9.66876 15.9037 9.65465C15.8839 9.64392 15.8546 9.65056 15.8031 9.66225C15.7765 9.6683 15.7438 9.67571 15.7035 9.68275L13.9277 10.1243C13.8067 10.1552 13.8067 10.1552 13.8375 10.2762C13.8776 10.4782 13.9311 10.673 13.9845 10.8679C14.2025 11.7827 14.4277 12.7108 14.6589 13.6184C14.6898 13.7394 14.6898 13.7394 14.5626 13.7908C13.9245 13.9801 13.2926 14.1488 12.6535 14.3043C12.2259 14.4068 11.8006 14.5138 11.3724 14.6214C11.0529 14.7017 10.7317 14.7825 10.4069 14.8621C10.252 14.894 10.252 14.894 10.2756 15.0017C10.3579 15.3617 10.4435 15.7199 10.5291 16.078C10.6146 16.4362 10.7002 16.7944 10.7825 17.1544C10.7943 17.2082 10.8002 17.2351 10.8166 17.2456C10.8331 17.2561 10.86 17.2502 10.9139 17.2384C11.1898 17.1756 11.4586 17.0994 11.7273 17.0233C11.872 16.9883 12.0115 16.9518 12.151 16.9152C12.2905 16.8787 12.4301 16.8422 12.5747 16.8072C13.2477 16.6507 13.764 17.1293 13.8873 17.6133C14.0215 18.1174 14.1505 18.6199 14.2795 19.1224C14.4085 19.6249 14.5375 20.1274 14.6717 20.6315C14.9518 21.6934 15.2285 22.757 15.5053 23.8207C15.7821 24.8844 16.0589 25.9483 16.339 27.0103C16.3486 27.0479 16.3595 27.0849 16.3702 27.1215C16.394 27.2023 16.4172 27.2809 16.4243 27.36C16.4696 27.7313 16.2297 28.0843 15.8399 28.1913C15.5 28.2912 15.1596 28.3747 14.8214 28.4577C14.6719 28.4945 14.5224 28.5311 14.374 28.569C14.1939 28.6215 14.1948 28.6278 14.2104 28.7333C14.2128 28.7498 14.2156 28.7687 14.2181 28.7907C14.2414 29.1051 14.2679 29.4176 14.2945 29.7302C14.3211 30.0428 14.3477 30.3554 14.3709 30.6697C14.3776 30.778 14.3861 30.8895 14.3947 31.001C14.4032 31.1126 14.4117 31.2241 14.4184 31.3323C14.4789 31.3169 14.5261 31.3087 14.5733 31.3004C14.6519 31.2831 14.7302 31.2661 14.8081 31.2491C15.1568 31.173 15.4991 31.0984 15.8454 31.0101C16.0988 30.9482 16.3549 30.8916 16.6118 30.8348C17.0644 30.7348 17.5192 30.6342 17.9648 30.5036C18.1998 30.4286 18.4419 30.3668 18.6911 30.3184C18.8327 30.2937 18.8327 30.2937 18.8707 30.428C18.8738 30.4337 18.8756 30.4369 18.8761 30.4404C18.8768 30.445 18.8753 30.45 18.8718 30.4618L19.7076 33.8307C19.7456 33.9651 19.7456 33.9651 19.8667 33.9342C19.9156 33.9238 19.9641 33.9137 20.0123 33.9037C20.2225 33.8598 20.4262 33.8173 20.634 33.7612C20.8491 33.714 21.0675 33.6649 21.2859 33.6158L21.288 33.6153C21.5064 33.5662 21.7248 33.5172 21.9399 33.4699C21.945 33.4155 21.9368 33.3683 21.9286 33.3211C21.7353 32.5479 21.5492 31.788 21.3693 31.0075C21.2912 30.6711 21.213 30.3347 21.1215 30.0056L21.1192 29.9963C21.0904 29.8838 21.0868 29.8699 21.2107 29.8198C21.2743 29.7941 21.3364 29.7736 21.3984 29.753C21.4605 29.7324 21.5226 29.7119 21.5862 29.6862C21.8511 29.6028 22.1166 29.5357 22.3799 29.4692C22.4967 29.4397 22.6132 29.4102 22.7289 29.3795C22.8367 29.3558 22.8367 29.3558 22.8675 29.4769C22.868 29.4938 22.8737 29.5122 22.8793 29.5307C22.885 29.5492 22.8906 29.5676 22.8912 29.5845C23.0263 30.1224 23.1564 30.6588 23.2864 31.1952C23.4165 31.7315 23.5465 32.2679 23.6817 32.8058C23.7127 32.9561 23.7262 32.9537 23.8564 32.9308L23.8685 32.9287C24.1815 32.8716 24.4979 32.8127 24.8142 32.7538L24.8166 32.7533C25.133 32.6944 25.4493 32.6355 25.7623 32.5784L25.779 32.5755C25.9057 32.5534 25.9579 32.5443 25.9722 32.516C25.9821 32.4961 25.9733 32.4668 25.9583 32.4169C25.9502 32.3898 25.9402 32.3567 25.9304 32.3156C25.8051 31.7643 25.6779 31.2096 25.5508 30.655L25.5505 30.6537C25.4233 30.0986 25.296 29.5435 25.1706 28.9918C25.1387 28.8369 25.1387 28.8369 25.2731 28.7989C26.0506 28.5172 26.8343 28.2149 27.5749 27.8327C28.135 27.5307 28.6806 27.202 29.1626 26.7872C30.0405 26.0212 30.5602 25.0699 30.653 23.9015C30.6968 23.3445 30.6319 22.7773 30.5403 22.2245C30.4107 21.5374 30.2277 20.879 29.8499 20.2741C29.5644 19.8087 29.1805 19.4479 28.7043 19.1714C28.146 18.8703 27.5519 18.7261 26.9137 18.6918C26.6685 18.652 26.4582 18.645 26.2345 18.6452ZM24.5321 26.1179C23.9187 26.4487 23.2684 26.679 22.6036 26.8827C22.1505 27.0238 21.6852 27.1425 21.2199 27.2611C21.0648 27.3007 20.9097 27.3403 20.7551 27.3807C20.6968 27.3955 20.6666 27.4032 20.6467 27.3923C20.6252 27.3804 20.6157 27.3469 20.596 27.2772C20.431 26.6522 20.2642 26.0238 20.0975 25.3955C19.9307 24.767 19.7639 24.1386 19.5989 23.5135L19.5656 23.3908C19.5064 23.1729 19.4451 22.9477 19.3984 22.7269C19.3676 22.6059 19.3809 22.5987 19.4681 22.5689C19.6357 22.5235 19.8029 22.4773 19.9699 22.4312C20.7605 22.2127 21.5481 21.995 22.3611 21.869C22.9345 21.7834 23.4957 21.7388 24.0734 21.7886C24.3586 21.8068 24.6387 21.8794 24.9127 21.9725C26.1934 22.4002 26.6744 24.1538 25.7444 25.206C25.449 25.5201 25.0788 25.823 24.5321 26.1179ZM18.4539 15.7914C18.2203 15.8492 17.9855 15.9072 17.7472 15.9615C17.7482 15.9953 17.7493 16.0292 17.7637 16.0558C18.0767 17.222 18.3754 18.384 18.676 19.553C18.7356 19.7851 18.7954 20.0175 18.8553 20.2502C18.8751 20.3199 18.8845 20.3534 18.906 20.3653C18.9259 20.3763 18.9561 20.3686 19.0144 20.3537C19.0965 20.3336 19.1786 20.3136 19.2608 20.2937C19.9398 20.1287 20.62 19.9635 21.2651 19.7076C21.7872 19.4949 22.295 19.2554 22.7247 18.9032C23.0354 18.6496 23.2907 18.3571 23.428 17.9733C23.7467 17.096 23.3286 16.0655 22.4819 15.6446C22.1925 15.491 21.8786 15.4195 21.5523 15.389C21.0967 15.3422 20.6504 15.3764 20.198 15.4311C19.6018 15.5076 19.0317 15.6486 18.4539 15.7914Z" fill="#F3F3F3"/>
</svg>

<svg xmlns="http://www.w3.org/2000/svg" width="42" height="42" fill="none"><circle cx="21" cy="21" r="20" fill="#8DC351"/><path fill="#F3F3F3" fill-rule="evenodd" d="M26.235 18.645c.032-.035.046-.042.059-.05a.213.213 0 0 1 .04-.038.22.22 0 0 0 .039-.038c.816-.784 1.2-1.732 1.07-2.866a5.589 5.589 0 0 0-.315-1.223 3.524 3.524 0 0 0-.581-1.046c-.487-.615-1.115-.982-1.86-1.182-.608-.171-1.233-.213-1.87-.18a13 13 0 0 0-1.918.21c-.097.017-.145.025-.173.006-.026-.019-.036-.06-.054-.142l-.303-1.23c-.081-.343-.165-.681-.248-1.02-.083-.337-.167-.675-.248-1.018-.032-.155-.032-.155-.2-.116a24.77 24.77 0 0 1-1.017.222l-.97.213c-.06.015-.087.03-.064.103.007.014.01.025.011.037a.11.11 0 0 0 .012.037c.077.303.155.6.234.898.078.297.157.594.234.897l.062.242c.101.4.2.792.314 1.19.012.053.018.08.008.097-.01.016-.038.022-.092.034l-.846.25c-.117.037-.233.07-.35.102a9.812 9.812 0 0 0-.349.102c-.053.012-.08.018-.097.008-.016-.01-.022-.038-.034-.091a.113.113 0 0 1-.008-.03 326.801 326.801 0 0 1-.378-1.594 312.86 312.86 0 0 0-.37-1.565l-.01-.05c-.023-.101-.033-.145-.06-.16-.02-.01-.048-.003-.1.008-.027.006-.06.014-.1.02l-1.775.442c-.121.031-.121.031-.09.152.04.202.093.397.147.592.218.915.443 1.843.674 2.75.03.121.03.121-.096.173-.639.19-1.27.358-1.91.513-.427.103-.852.21-1.28.317-.32.08-.641.162-.966.241-.155.032-.155.032-.131.14.082.36.168.718.253 1.076.086.358.171.716.254 1.076.011.054.017.081.034.092.016.01.043.004.097-.008.276-.062.545-.139.813-.215.145-.035.284-.071.424-.108.14-.036.28-.073.424-.108.673-.156 1.189.322 1.312.806.134.504.263 1.007.393 1.51.129.502.258 1.004.392 1.508.28 1.062.556 2.126.833 3.19.277 1.063.554 2.127.834 3.19l.031.11c.024.081.047.16.054.239.046.371-.194.724-.584.831-.34.1-.68.184-1.019.267-.15.037-.299.073-.447.111-.18.053-.18.059-.164.164.003.017.006.036.008.058.023.314.05.627.076.94a83.981 83.981 0 0 1 .1 1.27c.01.112.018.223.024.331.06-.015.108-.023.155-.032l.235-.05c.349-.077.691-.152 1.037-.24.254-.062.51-.118.767-.175.452-.1.907-.2 1.353-.331a6.4 6.4 0 0 1 .726-.186c.142-.024.142-.024.18.11.003.006.005.009.005.012 0 .005 0 .01-.004.022l.836 3.369c.038.134.038.134.159.103l.145-.03c.21-.044.414-.087.622-.143l.652-.145h.002c.218-.05.437-.099.652-.146a.54.54 0 0 0-.011-.149c-.194-.773-.38-1.533-.56-2.313a24.058 24.058 0 0 0-.247-1.002l-.003-.01c-.029-.112-.032-.126.092-.176.063-.026.125-.046.187-.067.063-.02.125-.041.188-.067.265-.083.53-.15.794-.217.117-.03.233-.059.349-.09.108-.023.108-.023.139.098 0 .017.006.035.011.054a199.503 199.503 0 0 1 .407 1.665c.13.536.26 1.072.396 1.61.03.15.044.148.174.125l.012-.002c.314-.057.63-.116.946-.175h.003c.316-.06.632-.118.945-.176l.017-.003c.127-.022.179-.03.193-.059.01-.02.001-.05-.014-.1-.008-.026-.018-.06-.028-.1-.125-.552-.252-1.106-.38-1.661v-.001l-.38-1.662c-.031-.155-.031-.155.103-.193.778-.282 1.561-.584 2.302-.966.56-.302 1.106-.631 1.588-1.046.878-.766 1.397-1.717 1.49-2.886.044-.556-.021-1.124-.113-1.677-.13-.687-.312-1.345-.69-1.95a3.191 3.191 0 0 0-1.146-1.103c-.558-.3-1.152-.445-1.79-.48a4.024 4.024 0 0 0-.68-.046Zm-1.703 7.473c-.613.33-1.264.561-1.928.765-.453.14-.919.26-1.384.378l-.465.12c-.058.014-.088.022-.108.011-.022-.012-.031-.045-.051-.115l-.498-1.882-.5-1.881-.032-.123c-.06-.218-.12-.443-.168-.664-.03-.121-.017-.128.07-.158l.502-.138c.79-.218 1.578-.436 2.391-.562.573-.086 1.135-.13 1.712-.08.286.018.566.09.84.183 1.28.428 1.761 2.182.831 3.234a4.601 4.601 0 0 1-1.212.912ZM18.454 15.79c-.234.058-.469.116-.707.17a.214.214 0 0 0 .017.095c.313 1.166.611 2.328.912 3.497l.18.697c.02.07.028.103.05.115.02.011.05.004.108-.011l.247-.06c.679-.165 1.359-.33 2.004-.586.522-.213 1.03-.453 1.46-.805.31-.253.566-.546.703-.93.319-.877-.1-1.907-.946-2.328a2.436 2.436 0 0 0-.93-.256c-.455-.047-.902-.013-1.354.042-.596.077-1.166.218-1.744.36Z" clip-rule="evenodd"/></svg>
